public/library/xrpl-xrp-network-text-light.svg

<svg width="732" height="182" viewBox="0 0 732 182" fill="none" xmlns="http://www.w3.org/2000/svg">
<path d="M299.57 81.0352L308.951 62.1796H324.695L308.732 90.3222L325.101 119.122H309.31L299.789 99.8594L290.252 119.122H274.507L290.877 90.3222L274.914 62.1796H290.674L299.57 81.0352ZM349.711 98.8432H342.253V118.95H328.604V62.1796H350.961C357.794 62.1796 362.969 63.6337 366.706 66.745C368.597 68.2468 370.108 70.1733 371.116 72.3682C372.124 74.563 372.6 76.9645 372.506 79.3779C372.624 82.8597 371.763 86.3048 370.02 89.3216C368.194 92.1275 365.607 94.3561 362.562 95.7475L374.367 118.731V119.356H359.654L349.711 98.8432ZM342.456 88.2897H351.165C352.226 88.4013 353.298 88.2723 354.302 87.9122C355.307 87.5522 356.217 86.9705 356.965 86.2103C358.344 84.597 359.079 82.5315 359.029 80.4098C359.105 79.3528 358.961 78.2915 358.605 77.2931C358.25 76.2947 357.692 75.3808 356.965 74.6093C356.204 73.868 355.292 73.2998 354.29 72.9436C353.289 72.5874 352.223 72.4516 351.165 72.5455H342.456V88.2897ZM393.848 99.6718V118.95H380.198V62.1796H402.994C407.001 62.0974 410.973 62.9485 414.595 64.6656C417.77 66.1959 420.471 68.5568 422.412 71.498C424.287 74.5479 425.223 78.0825 425.102 81.6606C425.185 84.183 424.687 86.6908 423.646 88.9899C422.605 91.289 421.049 93.3177 419.098 94.9189C415.158 98.2334 409.717 99.8907 402.728 99.8907H393.832L393.848 99.6718ZM393.848 89.1184H402.744C403.838 89.2289 404.943 89.1003 405.982 88.7412C407.022 88.3821 407.971 87.8013 408.763 87.0389C409.502 86.318 410.07 85.4415 410.427 84.4733C410.784 83.5051 410.921 82.4694 410.827 81.4417C410.968 79.1216 410.232 76.8332 408.763 75.0314C408.047 74.206 407.153 73.5536 406.148 73.1231C405.144 72.6925 404.055 72.4951 402.963 72.5455H393.848V89.1184ZM464.204 108.584H488.078V119.153H450.399V62.1796H464.079V108.584H464.204ZM528.432 94.9189H506.95V108.584H532.434V119.153H493.347V62.1796H532.716V72.7487H507.231V84.7562H528.573L528.432 94.9189ZM537.125 118.95V62.1796H555.558C560.389 62.1287 565.151 63.3299 569.379 65.6662C573.395 67.9215 576.658 71.3092 578.76 75.4066C581.015 79.6918 582.225 84.4488 582.294 89.2903V91.9795C582.394 96.8745 581.253 101.715 578.979 106.051C576.776 110.151 573.479 113.561 569.455 115.902C565.431 118.242 560.837 119.421 556.184 119.309H537.203L537.125 118.95ZM550.805 72.7487V108.584H555.496C557.248 108.681 558.998 108.355 560.598 107.634C562.198 106.913 563.601 105.818 564.689 104.44C566.774 101.553 567.816 97.41 567.816 92.0108V89.5249C567.816 83.9276 566.774 79.7844 564.689 77.0952C563.575 75.7002 562.14 74.5949 560.506 73.8736C558.873 73.1522 557.09 72.836 555.308 72.952H550.758L550.805 72.7487ZM634.78 112.101C632.166 114.717 628.942 116.641 625.399 117.699C621.064 119.16 616.511 119.864 611.937 119.778C604.479 119.778 598.46 117.495 594.114 112.93C589.767 108.365 587.281 101.986 586.859 93.8713V88.8995C586.783 83.8504 587.774 78.8422 589.767 74.2028C591.607 70.2104 594.553 66.8298 598.257 64.4623C602.149 62.183 606.6 61.0351 611.109 61.1477C618.144 61.1477 623.742 62.805 627.681 66.1196C631.621 69.4342 633.935 74.2028 634.514 80.613H621.256C621.077 78.0316 619.965 75.6032 618.129 73.7806C616.288 72.2931 613.954 71.5559 611.593 71.7168C609.985 71.6776 608.393 72.0577 606.976 72.8197C605.559 73.5818 604.364 74.6997 603.51 76.0633C601.376 79.8726 600.372 84.2116 600.618 88.5711V92.089C600.618 97.6862 601.65 102.033 603.51 104.941C605.371 107.849 608.482 109.287 612.625 109.287C615.534 109.488 618.415 108.602 620.708 106.801V97.8895H611.187V88.5086H634.389V112.101H634.78ZM677.259 94.9032H655.715V108.568H681.184V119.137H642.097V62.1796H681.465V72.7487H655.98V84.7562H677.525V94.9189L677.259 94.9032ZM707.294 98.8276H699.836V118.95H685.952V62.1796H708.326C715.174 62.1796 720.349 63.6337 724.07 66.745C725.964 68.2443 727.477 70.1703 728.485 72.3658C729.493 74.5613 729.968 76.964 729.87 79.3779C729.988 82.8597 729.127 86.3048 727.384 89.3216C725.558 92.1275 722.972 94.3561 719.927 95.7475L731.747 118.731V119.356H717.034L707.294 98.8276ZM699.836 88.2741H708.529C709.59 88.3856 710.662 88.2566 711.667 87.8966C712.671 87.5366 713.581 86.9549 714.329 86.1947C715.688 84.5786 716.406 82.5201 716.346 80.4098C716.418 79.3531 716.272 78.2929 715.917 77.295C715.562 76.2971 715.006 75.383 714.283 74.6093C713.527 73.8742 712.622 73.3097 711.629 72.9537C710.637 72.5977 709.58 72.4585 708.529 72.5455H699.82L699.836 88.2741Z" fill="black"/>
<path d="M55.6216 11.2571H59.9993V1.38619e-05H55.6216C50.9802 -0.004099 46.3836 0.907051 42.0947 2.68132C37.8059 4.4556 33.909 7.05817 30.627 10.3401C27.3451 13.6221 24.7425 17.5189 22.9682 21.8078C21.194 26.0966 20.2828 30.6933 20.2869 35.3346V60.9757C20.2963 66.4049 18.2286 71.6321 14.5076 75.5856C10.7866 79.5392 5.69424 81.9196 0.274414 82.239L0.58711 87.8675L0.274414 93.496C5.69424 93.8154 10.7866 96.1958 14.5076 100.149C18.2286 104.103 20.2963 109.33 20.2869 114.759V144.309C20.2703 154.115 24.1475 163.525 31.0663 170.474C37.9852 177.422 47.3796 181.339 57.185 181.364V170.107C50.3859 170.102 43.8664 167.4 39.0586 162.592C34.2509 157.784 31.5481 151.265 31.544 144.465V114.759C31.5487 109.456 30.2544 104.232 27.7742 99.5442C25.2941 94.8564 21.7035 90.8474 17.3163 87.8675C21.691 84.8751 25.2721 80.8634 27.7507 76.1784C30.2294 71.4935 31.5312 66.2759 31.544 60.9757V35.3346C31.5728 28.9577 34.1188 22.8502 38.6279 18.341C43.1371 13.8318 49.2447 11.2859 55.6216 11.2571V11.2571Z" fill="black"/>
<path d="M185.704 11.257H181.326V0H185.704C195.053 0.0248505 204.01 3.76056 210.607 10.3862C217.203 17.0118 220.899 25.9853 220.882 35.3346V60.9757C220.873 66.4049 222.941 71.632 226.662 75.5856C230.383 79.5392 235.475 81.9196 240.895 82.239L240.582 87.8675L240.895 93.496C235.475 93.8154 230.383 96.1958 226.662 100.149C222.941 104.103 220.873 109.33 220.882 114.759V144.309C220.899 154.115 217.022 163.525 210.103 170.474C203.184 177.422 193.79 181.339 183.984 181.364V170.106C190.783 170.102 197.303 167.4 202.11 162.592C206.918 157.784 209.621 151.265 209.625 144.465V114.759C209.62 109.456 210.915 104.232 213.395 99.5442C215.875 94.8564 219.466 90.8473 223.853 87.8675C219.478 84.875 215.897 80.8633 213.418 76.1784C210.94 71.4935 209.638 66.2759 209.625 60.9757V35.3346C209.642 32.1813 209.035 29.0557 207.841 26.1372C206.646 23.2187 204.888 20.5649 202.665 18.3278C200.442 16.0908 197.8 14.3146 194.889 13.1012C191.979 11.8878 188.857 11.2611 185.704 11.257V11.257Z" fill="black"/>
<path d="M161.626 45.3409H178.355L143.49 78.0176C137.234 83.6779 129.099 86.8122 120.663 86.8122C112.227 86.8122 104.092 83.6779 97.8363 78.0176L62.9707 45.3409H79.6999L106.123 70.0438C110.068 73.6652 115.229 75.6744 120.585 75.6744C125.941 75.6744 131.101 73.6652 135.047 70.0438L161.626 45.3409Z" fill="black"/>
<path d="M79.5432 136.023H62.814L97.8359 103.189C104.057 97.4595 112.205 94.2786 120.663 94.2786C129.12 94.2786 137.269 97.4595 143.489 103.189L178.511 136.023H161.782L135.203 111.007C131.257 107.386 126.096 105.376 120.741 105.376C115.385 105.376 110.224 107.386 106.279 111.007L79.5432 136.023Z" fill="black"/>
</svg>

<svg xmlns="http://www.w3.org/2000/svg" width="732" height="182" fill="none" viewBox="0 0 732 182"><path fill="#000" d="m299.57 81.035 9.381-18.855h15.744l-15.963 28.142 16.369 28.8H309.31l-9.521-19.263-9.537 19.263h-15.745l16.37-28.8-15.963-28.142h15.76zm50.141 17.808h-7.458v20.107h-13.649V62.18h22.357c6.833 0 12.008 1.454 15.745 4.565a15.38 15.38 0 0 1 5.8 12.633 18.6 18.6 0 0 1-2.486 9.944 17.65 17.65 0 0 1-7.458 6.426l11.805 22.983v.625h-14.713zm-7.255-10.553h8.709a7.1 7.1 0 0 0 5.8-2.08 8.62 8.62 0 0 0 2.064-5.8 7.65 7.65 0 0 0-.424-3.117 7.65 7.65 0 0 0-1.64-2.684 7.37 7.37 0 0 0-5.8-2.063h-8.709zm51.392 11.382v19.278h-13.65V62.18h22.796a25.85 25.85 0 0 1 11.601 2.486 19.5 19.5 0 0 1 7.817 6.832 18.23 18.23 0 0 1 2.69 10.163 16.46 16.46 0 0 1-6.004 13.258c-3.94 3.314-9.381 4.972-16.37 4.972h-8.896zm0-10.554h8.896a7.58 7.58 0 0 0 6.019-2.08 6.94 6.94 0 0 0 2.064-5.596 9.26 9.26 0 0 0-2.064-6.41 7.23 7.23 0 0 0-5.8-2.486h-9.115zm70.356 19.466h23.874v10.569h-37.679V62.18h13.68v46.404zm64.228-13.665H506.95v13.665h25.484v10.569h-39.087V62.18h39.369v10.569h-25.485v12.007h21.342zm8.693 24.031V62.18h18.433a27.97 27.97 0 0 1 13.821 3.486 23.45 23.45 0 0 1 9.381 9.74 30.75 30.75 0 0 1 3.534 13.884v2.69a29 29 0 0 1-3.315 14.071 25.19 25.19 0 0 1-22.795 13.258h-18.981zm13.68-46.201v35.835h4.691a10.95 10.95 0 0 0 9.193-4.144q3.127-4.33 3.127-12.43v-2.485q0-8.395-3.127-12.43a11.08 11.08 0 0 0-9.381-4.143h-4.55zM634.78 112.1a22.3 22.3 0 0 1-9.381 5.598 39.8 39.8 0 0 1-13.462 2.079c-7.458 0-13.477-2.283-17.823-6.848-4.347-4.565-6.833-10.944-7.255-19.059V88.9a35.9 35.9 0 0 1 2.908-14.697 22.97 22.97 0 0 1 8.49-9.74 24.24 24.24 0 0 1 12.852-3.315c7.035 0 12.633 1.657 16.572 4.972 3.94 3.314 6.254 8.083 6.833 14.493h-13.258a10.67 10.67 0 0 0-3.127-6.832 9.38 9.38 0 0 0-6.536-2.064 9.27 9.27 0 0 0-8.083 4.346 22.95 22.95 0 0 0-2.892 12.508v3.518c0 5.597 1.032 9.944 2.892 12.852 1.861 2.908 4.972 4.346 9.115 4.346 2.909.201 5.79-.685 8.083-2.486v-8.912h-9.521v-9.38h23.202V112.1zm42.479-17.198h-21.544v13.665h25.469v10.569h-39.087V62.18h39.368v10.569H655.98v12.007h21.545V94.92zm30.035 3.925h-7.458v20.122h-13.884V62.18h22.374c6.848 0 12.023 1.454 15.744 4.565a15.32 15.32 0 0 1 5.8 12.633 18.6 18.6 0 0 1-2.486 9.944 17.65 17.65 0 0 1-7.457 6.426l11.82 22.983v.625h-14.713zm-7.458-10.554h8.693a7.1 7.1 0 0 0 5.8-2.08 8.6 8.6 0 0 0 2.017-5.784 7.73 7.73 0 0 0-2.063-5.8 7.38 7.38 0 0 0-5.754-2.064h-8.709zM55.622 11.257h4.377V0h-4.377a35.304 35.304 0 0 0-35.335 35.335v25.64A21.263 21.263 0 0 1 .274 82.24l.313 5.629-.313 5.628a21.265 21.265 0 0 1 20.013 21.263v29.55a36.994 36.994 0 0 0 36.898 37.055v-11.257a25.66 25.66 0 0 1-25.641-25.642v-29.706a32.47 32.47 0 0 0-14.228-26.891 32.67 32.67 0 0 0 14.228-26.892V35.335a24.187 24.187 0 0 1 24.078-24.078M185.704 11.257h-4.378V0h4.378a35.275 35.275 0 0 1 35.178 35.335v25.64a21.266 21.266 0 0 0 20.013 21.264l-.313 5.629.313 5.628a21.264 21.264 0 0 0-20.013 21.263v29.55a36.99 36.99 0 0 1-36.898 37.055v-11.258a25.65 25.65 0 0 0 25.641-25.641v-29.706a32.47 32.47 0 0 1 14.228-26.891 32.68 32.68 0 0 1-14.228-26.892V35.335a23.95 23.95 0 0 0-23.921-24.078M161.626 45.34h16.729L143.49 78.019a34.023 34.023 0 0 1-45.654 0L62.971 45.34H79.7l26.423 24.703a21.386 21.386 0 0 0 28.924 0zM79.543 136.023H62.814l35.022-32.834a33.696 33.696 0 0 1 45.653 0l35.022 32.834h-16.729l-26.579-25.016a21.388 21.388 0 0 0-28.924 0z"/></svg>
